actions/22x22-dark/format-text-direction-horizontal.svg

<svg xmlns="http://www.w3.org/2000/svg" viewBox="0 0 22 22">
 <defs id="defs3051">
   <style type="text/css" id="current-color-scheme">
     .ColorScheme-Text {
       color:#f2f2f2;
     }
     </style>
 </defs>
   <path
      style="fill:currentColor;fill-opacity:1;stroke:none"
      d="m6.9433594 3-3.9433594 6.828125v.171875h1.0566406l1.1542969-2h4.578125l1.1542965 2h1.056641v-.171875l-3.9433594-6.828125h-.0566406zm4.0566406 0v1h5v-1zm6 0v4l2-2zm-9.5 1.0371094 1.7109375 2.9628906h-3.421875zm4.5 1.9628906v1h4v-1zm1 3v1h3v-1zm4 0v4l2-2zm-14 3v1h13v-1zm0 3v1h13v-1zm14 0v4l2-2zm-14 3v1h13v-1z"
      class="ColorScheme-Text" />
</svg>

<svg xmlns="http://www.w3.org/2000/svg" viewBox="0 0 22 22">
  <defs id="defs3051">
    <style type="text/css" id="current-color-scheme">
      .ColorScheme-Text {
        color:#f2f2f2;
      }
      </style>
  </defs>
 <path 
    style="fill:currentColor;fill-opacity:1;stroke:none" 
    d="M 6.9433594 3 L 3 9.828125 L 3 10 L 4.0566406 10 L 5.2109375 8 L 9.7890625 8 L 10.943359 10 L 12 10 L 12 9.828125 L 8.0566406 3 L 8 3 L 6.9433594 3 z M 11 3 L 11 4 L 16 4 L 16 3 L 11 3 z M 17 3 L 17 7 L 19 5 L 17 3 z M 7.5 4.0371094 L 9.2109375 7 L 5.7890625 7 L 7.5 4.0371094 z M 12 6 L 12 7 L 16 7 L 16 6 L 12 6 z M 13 9 L 13 10 L 16 10 L 16 9 L 13 9 z M 17 9 L 17 13 L 19 11 L 17 9 z M 3 12 L 3 13 L 16 13 L 16 12 L 3 12 z M 3 15 L 3 16 L 16 16 L 16 15 L 3 15 z M 17 15 L 17 19 L 19 17 L 17 15 z M 3 18 L 3 19 L 16 19 L 16 18 L 3 18 z "
    class="ColorScheme-Text"
    />  
</svg>
